svgs/regular/sliders-up.svg

<svg xmlns="http://www.w3.org/2000/svg" viewBox="0 0 512 512"><!--! Font Awesome Pro 6.4.2 by @fontawesome - https://fontawesome.com License - https://fontawesome.com/license (Commercial License) Copyright 2023 Fonticons, Inc. --><path d="M96 0c13.3 0 24 10.7 24 24V83.7c32.5 10.2 56 40.5 56 76.3s-23.5 66.1-56 76.3V488c0 13.3-10.7 24-24 24s-24-10.7-24-24V236.3C39.5 226.1 16 195.8 16 160s23.5-66.1 56-76.3V24C72 10.7 82.7 0 96 0zm0 192a32 32 0 1 0 0-64 32 32 0 1 0 0 64zM256 384a32 32 0 1 0 0-64 32 32 0 1 0 0 64zm80-32c0 35.8-23.5 66.1-56 76.3V488c0 13.3-10.7 24-24 24s-24-10.7-24-24V428.3c-32.5-10.2-56-40.5-56-76.3s23.5-66.1 56-76.3V24c0-13.3 10.7-24 24-24s24 10.7 24 24V275.7c32.5 10.2 56 40.5 56 76.3zM448 192a32 32 0 1 0 -64 0 32 32 0 1 0 64 0zm-8 76.3V488c0 13.3-10.7 24-24 24s-24-10.7-24-24V268.3c-32.5-10.2-56-40.5-56-76.3s23.5-66.1 56-76.3V24c0-13.3 10.7-24 24-24s24 10.7 24 24v91.7c32.5 10.2 56 40.5 56 76.3s-23.5 66.1-56 76.3z"/></svg>

<svg xmlns="http://www.w3.org/2000/svg" viewBox="0 0 512 512"><!--! Font Awesome Pro 6.1.1 by @fontawesome - https://fontawesome.com License - https://fontawesome.com/license (Commercial License) Copyright 2022 Fonticons, Inc. --><path d="M96 0C109.3 0 120 10.75 120 24V83.66C152.5 93.86 176 124.2 176 160C176 195.8 152.5 226.1 120 236.3V488C120 501.3 109.3 512 96 512C82.75 512 72 501.3 72 488V236.3C39.54 226.1 16 195.8 16 160C16 124.2 39.54 93.86 72 83.66V24C72 10.75 82.75 0 96 0V0zM96 192C113.7 192 128 177.7 128 160C128 142.3 113.7 128 96 128C78.33 128 64 142.3 64 160C64 177.7 78.33 192 96 192zM336 352C336 387.8 312.5 418.1 280 428.3V488C280 501.3 269.3 512 256 512C242.7 512 232 501.3 232 488V428.3C199.5 418.1 176 387.8 176 352C176 316.2 199.5 285.9 232 275.7V24C232 10.75 242.7 0 256 0C269.3 0 280 10.75 280 24V275.7C312.5 285.9 336 316.2 336 352zM256 384C273.7 384 288 369.7 288 352C288 334.3 273.7 320 256 320C238.3 320 224 334.3 224 352C224 369.7 238.3 384 256 384zM440 488C440 501.3 429.3 512 416 512C402.7 512 392 501.3 392 488V268.3C359.5 258.1 336 227.8 336 192C336 156.2 359.5 125.9 392 115.7V24C392 10.75 402.7 0 416 0C429.3 0 440 10.75 440 24V115.7C472.5 125.9 496 156.2 496 192C496 227.8 472.5 258.1 440 268.3V488zM416 160C398.3 160 384 174.3 384 192C384 209.7 398.3 224 416 224C433.7 224 448 209.7 448 192C448 174.3 433.7 160 416 160z"/></svg>
